build/system/ChevronUpSolid.svg

<svg xmlns="http://www.w3.org/2000/svg" fill="none" viewBox="0 0 24 24" focusable="false"><path d="M0 0H24V24H0z"/><path fill="#74767B" fill-rule="evenodd" d="M12 3C7.02944 3 3 7.02944 3 12C3 16.9706 7.02944 21 12 21C16.9706 21 21 16.9706 21 12C21 7.02944 16.9706 3 12 3ZM16.3941 14.1863C16.5341 14.0563 16.6041 13.8863 16.6041 13.7063C16.6041 13.5463 16.5541 13.3963 16.4341 13.2663L12.5104 9.22631C12.2304 8.91631 11.7504 8.91631 11.4704 9.22631L7.56408 13.2863C7.32408 13.5563 7.34408 13.9663 7.60408 14.2063C7.87408 14.4463 8.28408 14.4363 8.52408 14.1663L11.9976 10.5927L15.4741 14.1463C15.7141 14.4063 16.1241 14.4263 16.3941 14.1863Z"/></svg>

<svg xmlns="http://www.w3.org/2000/svg" fill="none" viewBox="0 0 24 24" focusable="false"><path fill="#74767B" fill-rule="evenodd" d="M12 3c-4.98 0-9 4.02-9 9 0 4.97 4.02 9 9 9a9 9 0 0 0 9-9c0-4.98-4.03-9-9-9m4.39 11.18c.14-.13.21-.3.21-.48 0-.16-.05-.31-.17-.44l-3.92-4.04a.7.7 0 0 0-1.04 0l-3.91 4.06c-.24.27-.22.68.04.92.27.24.68.23.92-.04l3.47-3.57 3.48 3.55c.24.26.65.28.92.04"/></svg>
